public/flags/SK.svg

<svg fill="none" height="53" viewBox="0 0 61 53" width="61" xmlns="http://www.w3.org/2000/svg" xmlns:xlink="http://www.w3.org/1999/xlink"><mask id="a" height="43" maskUnits="userSpaceOnUse" width="59" x="1" y="3"><rect fill="#fff" height="41.4393" rx="3.7125" stroke="#fff" stroke-width="1.06071" width="57.9393" x="1.53036" y="3.53036"/></mask><mask id="b" height="32" maskUnits="userSpaceOnUse" width="26" x="9" y="8"><path d="m28.4794 10.0857h-12.8164c-2.2804 0-4.1529 1.8024-4.2398 4.0811l-.5468 14.3373c-.0491 1.2881.49 2.5286 1.4652 3.3716l6.0301 5.2125c2.1245 1.8364 5.2745 1.8364 7.399 0l6.0301-5.2125c.9752-.843 1.5143-2.0835 1.4652-3.3716l-.5468-14.3373c-.0869-2.2787-1.9595-4.0811-4.2398-4.0811z" fill="#fff" stroke="#fff" stroke-width="2.82857"/></mask><rect fill="#fff" height="41.4393" rx="3.7125" stroke="#f5f5f5" stroke-width="1.06071" width="57.9393" x="1.53036" y="3.53036"/><g mask="url(#a)"><path clip-rule="evenodd" d="m1 31.3334h59v-14.1667h-59z" fill="#0c47b7" fill-rule="evenodd"/><path clip-rule="evenodd" d="m1 45.5h59v-14.1667h-59z" fill="#e53b35" fill-rule="evenodd"/><path d="m28.4794 10.0857h-12.8164c-2.2804 0-4.1529 1.8024-4.2398 4.0811l-.5468 14.3373c-.0491 1.2881.49 2.5286 1.4652 3.3716l6.0301 5.2125c2.1245 1.8364 5.2745 1.8364 7.399 0l6.0301-5.2125c.9752-.843 1.5143-2.0835 1.4652-3.3716l-.5468-14.3373c-.0869-2.2787-1.9595-4.0811-4.2398-4.0811z" fill="#f73744" stroke="#fff" stroke-width="2.82857"/><g clip-rule="evenodd" fill-rule="evenodd" mask="url(#b)"><path d="m20.6664 26.3737c0-.3905-.3166-.7071-.7071-.7071h-2.8c-.3906 0-.7072-.3166-.7072-.7072v-1.419c0-.3906.3166-.7071.7072-.7071h2.8c.3905 0 .7071-.3166.7071-.7072v-1.419c0-.3906-.3166-.7072-.7071-.7072h-1.3952c-.3906 0-.7072-.3166-.7072-.7071v-1.4191c0-.3905.3166-.7071.7072-.7071h1.3952c.3905 0 .7071-.3166.7071-.7072v-1.419c0-.3905.3166-.7071.7072-.7071h1.3952c.3906 0 .7072.3166.7072.7071v1.419c0 .3906.3166.7072.7071.7072h1.3952c.3906 0 .7072.3166.7072.7071v1.4191c0 .3905-.3166.7071-.7072.7071h-1.3952c-.3905 0-.7071.3166-.7071.7072v1.419c0 .3906.3166.7072.7071.7072h2.8c.3905 0 .7071.3165.7071.7071v1.419c0 .3906-.3166.7072-.7071.7072h-2.8c-.3905 0-.7071.3166-.7071.7071v4.2524c0 .3906-.3166.7072-.7072.7072h-1.3952c-.3906 0-.7072-.3166-.7072-.7072z" fill="#fff"/><path d="m19.5351 31.5291c-3.4157.5427-5.8925 2.1526-5.8925 4.0542 0 2.3473 3.7736 4.2501 8.4286 4.2501 4.6549 0 8.4285-1.9028 8.4285-4.2501 0-1.9016-2.4768-3.5115-5.8926-4.0542-.4523-.9537-1.4178-1.6124-2.536-1.6124s-2.0838.6587-2.536 1.6124z" fill="#1251a1"/></g></g></svg>

<svg width="61" height="53" viewBox="0 0 61 53" fill="none" xmlns="http://www.w3.org/2000/svg">
<rect x="1.53036" y="3.53036" width="57.9393" height="41.4393" rx="3.7125" fill="white" stroke="#F5F5F5" stroke-width="1.06071"/>
<mask id="mask0" mask-type="alpha" maskUnits="userSpaceOnUse" x="1" y="3" width="59" height="43">
<rect x="1.53036" y="3.53036" width="57.9393" height="41.4393" rx="3.7125" fill="white" stroke="white" stroke-width="1.06071"/>
</mask>
<g mask="url(#mask0)">
<path fill-rule="evenodd" clip-rule="evenodd" d="M1 31.3334H60V17.1667H1V31.3334Z" fill="#0C47B7"/>
<path fill-rule="evenodd" clip-rule="evenodd" d="M1 45.5H60V31.3333H1V45.5Z" fill="#E53B35"/>
<path d="M28.4794 10.0857H15.663C13.3826 10.0857 11.5101 11.8881 11.4232 14.1668L10.8764 28.5041C10.8273 29.7922 11.3664 31.0327 12.3416 31.8757L18.3717 37.0882C20.4962 38.9246 23.6462 38.9246 25.7707 37.0882L31.8008 31.8757C32.776 31.0327 33.3151 29.7922 33.266 28.5041L32.7192 14.1668C32.6323 11.8881 30.7597 10.0857 28.4794 10.0857Z" fill="#F73744" stroke="white" stroke-width="2.82857"/>
<mask id="mask1" mask-type="alpha" maskUnits="userSpaceOnUse" x="9" y="8" width="26" height="32">
<path d="M28.4794 10.0857H15.663C13.3826 10.0857 11.5101 11.8881 11.4232 14.1668L10.8764 28.5041C10.8273 29.7922 11.3664 31.0327 12.3416 31.8757L18.3717 37.0882C20.4962 38.9246 23.6462 38.9246 25.7707 37.0882L31.8008 31.8757C32.776 31.0327 33.3151 29.7922 33.266 28.5041L32.7192 14.1668C32.6323 11.8881 30.7597 10.0857 28.4794 10.0857Z" fill="white" stroke="white" stroke-width="2.82857"/>
</mask>
<g mask="url(#mask1)">
<path fill-rule="evenodd" clip-rule="evenodd" d="M20.6664 26.3737C20.6664 25.9832 20.3498 25.6666 19.9593 25.6666H17.1593C16.7687 25.6666 16.4521 25.35 16.4521 24.9594V23.5404C16.4521 23.1498 16.7687 22.8333 17.1593 22.8333H19.9593C20.3498 22.8333 20.6664 22.5167 20.6664 22.1261V20.7071C20.6664 20.3165 20.3498 19.9999 19.9593 19.9999H18.5641C18.1735 19.9999 17.8569 19.6833 17.8569 19.2928V17.8737C17.8569 17.4832 18.1735 17.1666 18.5641 17.1666H19.9593C20.3498 17.1666 20.6664 16.85 20.6664 16.4594V15.0404C20.6664 14.6499 20.983 14.3333 21.3736 14.3333H22.7688C23.1594 14.3333 23.476 14.6499 23.476 15.0404V16.4594C23.476 16.85 23.7926 17.1666 24.1831 17.1666H25.5783C25.9689 17.1666 26.2855 17.4832 26.2855 17.8737V19.2928C26.2855 19.6833 25.9689 19.9999 25.5783 19.9999H24.1831C23.7926 19.9999 23.476 20.3165 23.476 20.7071V22.1261C23.476 22.5167 23.7926 22.8333 24.1831 22.8333H26.9831C27.3736 22.8333 27.6902 23.1498 27.6902 23.5404V24.9594C27.6902 25.35 27.3736 25.6666 26.9831 25.6666H24.1831C23.7926 25.6666 23.476 25.9832 23.476 26.3737V30.6261C23.476 31.0167 23.1594 31.3333 22.7688 31.3333H21.3736C20.983 31.3333 20.6664 31.0167 20.6664 30.6261V26.3737Z" fill="white"/>
<path fill-rule="evenodd" clip-rule="evenodd" d="M19.5351 31.5291C16.1194 32.0718 13.6426 33.6817 13.6426 35.5833C13.6426 37.9306 17.4162 39.8334 22.0712 39.8334C26.7261 39.8334 30.4997 37.9306 30.4997 35.5833C30.4997 33.6817 28.0229 32.0718 24.6071 31.5291C24.1548 30.5754 23.1893 29.9167 22.0711 29.9167C20.9529 29.9167 19.9873 30.5754 19.5351 31.5291Z" fill="#1251A1"/>
</g>
</g>
</svg>
